X: 3224
T: Beggar's Belief
R: waltz
M: 3/4
K: Gmajor
|:GBA|G3|BdB|dc/B/A/F/|GBA|G3|BdB|dc/B/A/F/:|
|:Bce|d3|Bdc|A3|c2 c|B2 G|B2 A|G3:|
|:GBA G3|BdB dc/B/A/F/|GBA G3|BdB dc/B/A/F/:|
|:Bce d3|Bdc A3|c2 c B2 G|B2 A G3:|

